X:07
T: Poor White Folks
C: Bill Monroe
Z: TablEdited by Mike Stangeland for MandoZine
S: MandoZine TablEdit Archives
L:1/8
Q:274
M:2/4
K:A
 |: "A"A,/C/E/A/ [AA]A/A/ | [c/A/][B/A/][AA] [cA][c/A/][c/A/] | A,/C/E/A/ [AA]A/A/ |
 c/B/c/B/ A/F/E | A,/B,/C/E/ F/A/A | [c/A/][B/A/][AA] [cA]e/e/ | e/f/e/c/ A/F/F |
 "E"E/F/F "A"A2 :|3 e/a/"A"a/a/ a/a/a/a/ | f/e/c/e/ ee/e/ | A/c/c/e/ e/c/c/f/ | f/c/c/e/ ee |
 e/a/a/a/ a/a/a/e/ | f/e/c/e/ ee/e/ | e/f/e/c/ A/F/F | "E"E/A/A "A"A2 :|
